X:61
T:Knocknabower Polka, The  
T:Knocknaboul
F:file ID fs.3/061knock
Z:bill@capeirish.com
B:FS3.36c
M:2/4
L:1/8
Q:120
R:polka
K:G
D|GB B/c/B/A/|GB B>A|FA A/B/A/G/|FA D2|
"5"GB B/c/B/A/|GB d>g|fd cA|G2G :|
d|"9"g2 g>f|ga a>g|fd de|fg af|
"13"g2 g>f|ga a>g|fd cA|G2G :|
A|"17"B2 c^c|dc AG|F>E FD|FG Ac|
"21"B2 cB/c/|dc Ag|fd cA|G2G :|

